X:371
T:Go to the … and Shake Yourself. RH.371
T:Go to the Devil and Shake Yourself. RH.371
R:jig
S:Rev.R.Harrison’s MS,c1815,Cumbria
O:England
A:Temple Sowerby,Cumbria
Z:vmp.Simon Wilson. Review PJH, 2008.
M:6/8
L:1/8
Q:3/8=120
K:D
Add dcB|ABA AFA|Add d2e|fdB B2A|\
Add dcB|ABA AFA|dfd ege|fdd d3||!
afd dcd|BGG G3|bge “sic”egd|cAA A3|\
Add dcB|ABA AFA|dfd ege|fdd d3||!
afd dcd|BGG G3|bge “sic”fgd|cAA A3|\
Add dcB|ABA AFA|dfd ege|fdd d3|]
W:It seems the Rev. R. Harrison is shy of writing “Devil”.

